X:6641
T:Gnglt efter Vilhelm Hedlund, Enviken
M:2/4
L:1/16
Q:1/4=80
O:Sweden
A:Enviken (Dalarna)
N:Can also be played as a schottis/reinlnder
K:Gm
g2ba g2d2|(dc)ed B2G2|D2^FA d2AF|G2DB, G,4|\
g2ba g2d2|(dc)ed B2G2|D2^FA d2AF|G2G2 G4::\
{B}d2(dc) c2(cA)|B2BG ^F2D2|G3A (BA)Bd|c2cA B2A2|\
d3^f (gf)ga|b2ag ^f2d2|B2dB A2G^F|A4 G4:|\
T:Andrastmma
B2dc B2B2|(BA)cB G2D2|A,2D^F F2DC|B,2B,2 [B,4D4]|\
B2dc B2B2|(BA)cB G2D2|D2C2 A,2C2|[B,2D2][B,2D2] [B,4D4]::\
{D}B2BA A2A^F|G2GD [A,2D2][A,2D2]|D3^F (GF)GB|A2A^F G2F2|\
A3d (=ed)e^f|g2^f=e (Ad)(fd)|D2BG ^F2DC|C4 [B,4D4]:|
